icons/arrow-topright.svg

<svg width="24" height="24" viewBox="0 0 24 24" fill="none" xmlns="http://www.w3.org/2000/svg">
<path fill-rule="evenodd" clip-rule="evenodd" d="M16.1277 8.01373C16.4206 8.30662 16.4206 8.7815 16.1277 9.07439L9.05667 16.1455C8.76378 16.4383 8.28891 16.4383 7.99601 16.1455C7.70312 15.8526 7.70312 15.3777 7.99601 15.0848L15.0671 8.01373C15.36 7.72084 15.8348 7.72084 16.1277 8.01373Z" fill="black"/>
<path fill-rule="evenodd" clip-rule="evenodd" d="M14.9628 8.94074L9.74868 9.08166C9.33462 9.09285 8.98989 8.76626 8.97869 8.3522C8.9675 7.93814 9.2941 7.5934 9.70816 7.58221L14.9509 7.44052L14.961 7.44052C15.7995 7.44052 16.4888 8.12986 16.4888 8.96833L16.4888 8.97833L16.4181 14.2816C16.4125 14.6958 16.0723 15.0271 15.6581 15.0216C15.2439 15.016 14.9127 14.6758 14.9182 14.2616L14.9888 8.96752C14.9885 8.96534 14.987 8.959 14.9787 8.95066C14.9714 8.94336 14.9656 8.94132 14.9628 8.94074Z" fill="black"/>
</svg>

<svg xmlns="http://www.w3.org/2000/svg" fill="none" viewBox="0 0 24 24">
  <path fill="#000" fill-rule="evenodd" d="M16.128 8.014a.75.75 0 0 1 0 1.06l-7.071 7.071a.75.75 0 0 1-1.061-1.06l7.071-7.071a.75.75 0 0 1 1.06 0Z" clip-rule="evenodd"/>
  <path fill="#000" fill-rule="evenodd" d="m14.963 8.94-5.214.142a.75.75 0 0 1-.04-1.5l5.242-.141h.01c.838 0 1.528.689 1.528 1.527v.01l-.07 5.304a.75.75 0 0 1-1.5-.02l.07-5.294c0-.003-.002-.009-.01-.017a.033.033 0 0 0-.016-.01Z" clip-rule="evenodd"/>
</svg>
